originals/slightly-better-track.svg

<?xml version="1.0" encoding="UTF-8" standalone="no"?>
<!-- Created with Inkscape (http://www.inkscape.org/) -->

<svg
   xmlns:dc="http://purl.org/dc/elements/1.1/"
   xmlns:cc="http://creativecommons.org/ns#"
   xmlns:rdf="http://www.w3.org/1999/02/22-rdf-syntax-ns#"
   xmlns:svg="http://www.w3.org/2000/svg"
   xmlns="http://www.w3.org/2000/svg"
   xmlns:sodipodi="http://sodipodi.sourceforge.net/DTD/sodipodi-0.dtd"
   xmlns:inkscape="http://www.inkscape.org/namespaces/inkscape"
   width="2048"
   height="2048"
   id="svg2"
   version="1.1"
   inkscape:version="0.48.4 r9939"
   sodipodi:docname="slightly-better-track.svg"
   inkscape:export-filename="/home/cromo/projects/ludum-dare-34/art/slightly-better-track.png"
   inkscape:export-xdpi="90"
   inkscape:export-ydpi="90">
  <defs
     id="defs4" />
  <sodipodi:namedview
     id="base"
     pagecolor="#ffffff"
     bordercolor="#666666"
     borderopacity="1.0"
     inkscape:pageopacity="0.0"
     inkscape:pageshadow="2"
     inkscape:zoom="0.39697266"
     inkscape:cx="964.28121"
     inkscape:cy="1089.2316"
     inkscape:document-units="px"
     inkscape:current-layer="layer2"
     showgrid="false"
     fit-margin-top="0"
     fit-margin-left="0"
     fit-margin-right="0"
     fit-margin-bottom="0"
     inkscape:window-width="1920"
     inkscape:window-height="1056"
     inkscape:window-x="1920"
     inkscape:window-y="0"
     inkscape:window-maximized="1"
     inkscape:snap-grids="false">
    <inkscape:grid
       type="xygrid"
       id="grid4735"
       empspacing="4"
       visible="true"
       enabled="true"
       snapvisiblegridlinesonly="true"
       spacingx="4px"
       spacingy="4px" />
  </sodipodi:namedview>
  <metadata
     id="metadata7">
    <rdf:RDF>
      <cc:Work
         rdf:about="">
        <dc:format>image/svg+xml</dc:format>
        <dc:type
           rdf:resource="http://purl.org/dc/dcmitype/StillImage" />
        <dc:title />
      </cc:Work>
    </rdf:RDF>
  </metadata>
  <g
     inkscape:groupmode="layer"
     id="layer2"
     inkscape:label="track"
     style="display:inline">
    <rect
       style="fill:#2a7e10;fill-opacity:1;stroke:#000000;stroke-opacity:1"
       id="rect4067"
       width="2148.7627"
       height="2080.7478"
       x="-40.305042"
       y="-22.671587" />
    <path
       style="fill:#9b6d1f;fill-opacity:1;stroke:none"
       d="m 889.2219,139.80297 c -90.30408,4.30539 -214.23348,23.94659 -294.7219,31.47828 -57.41783,5.37287 -118.6551,15.31121 -166.25,47.875 -36.59697,25.03915 -70.52341,67.35033 -92.59056,105.8125 -23.04708,40.17016 -33.26863,82.79655 -40.94069,128.46875 -16.70092,99.42155 7.62087,260.0869 -1.33594,346.28906 -5.07374,48.83083 -19.80258,97.65214 -34.53124,144.48438 -19.85515,63.13276 -19.18495,110.45646 -23.53907,167.44536 -5.18267,67.8334 3.74732,136.4507 4.58593,204.4766 0.17591,14.2697 -3.68241,29.8887 -3.11718,44.1483 5.34374,134.8125 -4.174,227.7426 11.57811,316.2656 8.71526,48.9777 19.74885,72.9982 42.59986,117.0348 9.16242,17.6571 10.45921,23.3615 26.10491,38.8074 2.65116,2.6173 15.92229,9.1975 23.3102,14.6001 6.60403,4.8293 5.16589,9.4293 7.36818,11.4005 13.38024,11.976 20.1732,18.1856 37.04616,25.2306 46.62023,19.4657 123.82141,40.9583 184.53071,52.8994 60.61452,11.9224 100.72444,8.587 151.15576,9.6302 43.92503,0.9087 90.14248,3.3584 156.16362,6.1314 188.55554,7.9196 243.23234,33.6922 429.50954,11.3152 85.0512,-10.217 184.869,-12.8834 253.1398,-30.8416 81.079,-21.3273 96.418,-42.0736 141.7076,-82.5107 69.0233,-61.6277 76.1542,-42.777 99.5171,-98.8522 8.7455,-20.9908 8.077,-52.7647 3.1243,-74.9586 -13.0444,-58.4551 -47.4157,-153.9226 -60.4322,-176.3438 -28.842,-49.6812 -62.4374,-81.0046 -93.8468,-129.1038 -31.8397,-48.758 -62.2214,-114.8102 -81.8655,-151.7669 -12.9071,-24.2823 -26.3049,-60.168 -25.1822,-69.8878 2.379,-20.5948 82.302,-88.9123 117.1346,-130.9894 46.6342,-56.33321 85.4885,-109.56629 124.6969,-171.2987 22.6453,-35.65437 105.8757,-215.66842 106.4042,-256.95657 0.9049,-70.69351 -16.7773,-140.10759 -52.8994,-200.88242 -28.8212,-48.49102 -76.3792,-86.30831 -116.4979,-125.96344 -45,-44.48007 -91.3801,-64.92983 -172.5614,-91.31039 -73.0209,-23.72876 -207.7842,-21.20007 -219.1424,-21.42797 -15.142,-0.30381 -34.323,6.10223 -47.882,5.67851 -20.1525,-0.62977 -70.5112,-7.23612 -110.188,-10.08687 -102.1982,-7.34286 -179.80771,-11.17026 -282.1531,-6.29078 z m -64.82342,151.22827 c 45.31778,-2.34214 16.31816,-8.17769 68.85371,-9.51736 85.54196,-2.18133 234.41181,4.79167 308.01341,11.2908 27.0852,2.39167 75.2772,8.06678 102.4141,6.35939 28.1818,-1.77313 89.2259,-4.9764 139.5781,-1.15626 50.4458,3.82723 116.1614,22.8089 146.1328,41.78125 45.6527,28.89888 77.8549,76.38987 114.9844,108.00001 30.2917,25.78882 41.9387,100.96359 42.9453,125.96094 0.5121,12.71797 -46.5888,122.22404 -76.8907,182.39844 -34.09,67.69711 -89.6824,132.30048 -138.6952,190.11718 -24.6203,29.04264 -83.4665,95.32447 -87.586,94.11717 -4.5611,-1.3368 -1.4627,-11.5093 -14.4922,-34.5234 -5.3765,-9.49665 2.591,-67.17283 -30.2656,-128.1719 -26.1848,-48.6128 -67.4652,-86.9882 -112.1406,-119.4375 -33.7319,-24.50064 -72.5343,-41.49046 -110.8438,-57.9375 -64.4169,-27.65546 -142.3538,-58.11219 -212.35931,-61.79688 -49.02584,-2.58044 -86.713,7.62226 -133.35157,22.95313 -33.93767,11.15588 -69.40243,29.15946 -91.57032,51.27343 -27.14082,27.07479 -89.09981,121.18936 -104.75781,184.81248 -10.85274,44.09792 -0.69641,70.52974 8.00781,115.10154 11.90961,60.9857 31.18235,123.7058 54.64844,181.2422 14.75237,36.1713 31.44924,72.6271 58.39062,100.9141 44.04764,46.2476 100.53963,75.4639 167.44531,88.4609 53.63836,10.4197 106.55673,18.7139 161.07823,15.1015 51.9297,-3.4406 32.5589,-10.5638 148.7577,-33.0311 26.7814,-5.1782 75.368,-19.0568 122.5469,-51.8828 44.7132,-31.1105 46.8955,-44.4652 52.914,-43.8672 5.9451,0.5907 23.492,45.4451 47.2345,82.789 21.3763,33.6224 29.331,16.6921 37.3758,32.1156 17.1737,32.9258 56.1269,96.3757 98.6866,147.0954 13.8243,16.4748 24.8982,27.6041 31.4063,55.2734 4.6231,19.6553 42.3151,97.9606 38.9843,112.1797 -1.2057,5.1475 -80.0449,64.7265 -101.4921,82.2265 -12.7488,10.4025 -67.6291,23.9919 -163.8985,32.1329 -81.1135,6.8593 -156.0172,16.3165 -224.0703,15.5781 -71.4941,-0.7757 -123.6151,-9.062 -194.97655,-13.4844 -77.26544,-4.7883 -156.15851,-10.3502 -233.53125,-12.8672 -58.75017,-1.9112 -109.96486,2.9122 -176.78906,-12.914 -48.58856,-11.5075 -111.7719,-25.609 -139.72656,-46.3984 -5.7773,-4.2965 -31.47985,-45.3885 -42.22657,-108.4454 -6.64597,-38.9955 -3.10532,-209.0351 -5.0703,-250.3203 -1.45896,-30.6534 2.14473,-79.6479 0.89062,-131.6953 -1.25557,-52.1079 -7.28749,-105.1255 -3.07813,-157.0782 6.89903,-85.1492 16.81428,-110.5722 28.26563,-161.67182 6.41416,-28.62205 18.61987,-65.94508 25.05468,-94.56249 5.27495,-23.45918 6.83988,-38.48134 7.5547,-62.51563 2.84127,-95.53194 -11.24652,-262.19401 -4.57814,-291.01563 8.19983,-35.44078 9.47928,-59.31599 27.6797,-90.81252 13.39591,-23.18215 45.0372,-60.84501 60.92187,-64.89062 103.59261,-26.38361 186.691,-33.34115 301.62504,-39.28125 z m 137.74215,490.75783 c 34.24876,0.066 74.95457,20.0615 107.87497,29.5078 11.788,3.38249 100.7839,41.10579 110.2032,46.36719 8.8033,4.91731 80.1173,44.37387 96.4844,99.41407 8.8858,29.88182 7.513,65.77687 15.578,95.89067 9.1334,34.1034 40.6089,86.2557 40.0001,91.7109 -0.6884,6.168 -31.5483,29.3946 -43.4297,39.4297 -15.8454,13.383 -38.0227,24.358 -57.3594,31.8593 -27.3521,10.6107 -97.4998,23.2163 -118.9375,30.0782 -58.5079,18.7275 -125.52155,2.3073 -156.17972,-1.4765 -21.9851,-2.7134 -68.62844,-14.5652 -94.84373,-48.0079 -27.12319,-34.6009 -40.01901,-73.3638 -55.4297,-114.5391 -7.62618,-20.3761 -33.7422,-137.34353 -32.57812,-152.31247 1.23897,-15.93212 44.78525,-94.78565 69.05469,-115.60937 20.65488,-17.72234 75.92439,-32.39653 119.56251,-32.31249 z"
       id="path3289"
       inkscape:connector-curvature="0"
       sodipodi:nodetypes="sssssssssssssssssssssssssssssssssssssssssssssssssssssssssssssssssssssssssssssssssssssssssssssssssssssss" />
    <path
       style="fill:#9b6d1f;fill-opacity:1;stroke:none"
       d="m 285.34602,849.01321 143.98773,-1.38996 -23.21275,86.65139 -144.17536,0 z"
       id="path4065"
       inkscape:connector-curvature="0"
       sodipodi:nodetypes="ccccc" />
    <path
       style="fill:#8e641c;fill-opacity:1;stroke:none"
       d="m 419.8125,847.71875 -23.5625,0.21875 -0.25,18.53125 23.59375,0.34375 0.21875,-19.09375 z m -0.21875,19.09375 -0.25,18.09375 4.84375,-18.03125 -4.59375,-0.0625 z M 396,866.46875 l -23.59375,-0.28125 -0.3125,23.5625 23.59375,0.34375 0.3125,-23.625 z m -0.3125,23.625 -0.3125,23.59375 16.21875,0.21875 6.3125,-23.5625 -22.21875,-0.25 z m -0.3125,23.59375 -23.59375,-0.3125 -0.28125,20.90625 23.59375,0 0.28125,-20.59375 z m -23.59375,-0.3125 0.3125,-23.625 -23.625,-0.28125 -0.28125,23.59375 23.59375,0.3125 z m -23.59375,-0.3125 -23.625,-0.3125 -0.25,21.53125 23.5625,0 0.3125,-21.21875 z m -23.625,-0.3125 0.34375,-23.59375 -23.625,-0.3125 L 301,912.4375 324.5625,912.75 z M 301,912.4375 l -23.625,-0.3125 -0.28125,22.15625 23.59375,0 L 301,912.4375 z M 277.375,912.125 277.71875,888.53125 274.5,888.5 l -6.4375,23.5 9.3125,0.125 z m 0.34375,-23.59375 23.5625,0.3125 0.3125,-23.59375 -20.625,-0.28125 -3.09375,11.28125 -0.15625,12.28125 z m 23.875,-23.28125 23.59375,0.3125 0.21875,-16.9375 -23.59375,0.21875 -0.21875,16.40625 z m 23.59375,0.3125 -0.28125,23.59375 23.5625,0.3125 0.3125,-23.625 -23.59375,-0.28125 z m 47.21875,0.625 0.21875,-18.03125 -23.59375,0.25 -0.21875,17.4375 23.59375,0.34375 z"
       id="path4855"
       inkscape:connector-curvature="0" />
  </g>
</svg>

<?xml version="1.0" encoding="UTF-8" standalone="no"?>
<!-- Created with Inkscape (http://www.inkscape.org/) -->

<svg
   xmlns:dc="http://purl.org/dc/elements/1.1/"
   xmlns:cc="http://creativecommons.org/ns#"
   xmlns:rdf="http://www.w3.org/1999/02/22-rdf-syntax-ns#"
   xmlns:svg="http://www.w3.org/2000/svg"
   xmlns="http://www.w3.org/2000/svg"
   xmlns:xlink="http://www.w3.org/1999/xlink"
   xmlns:sodipodi="http://sodipodi.sourceforge.net/DTD/sodipodi-0.dtd"
   xmlns:inkscape="http://www.inkscape.org/namespaces/inkscape"
   width="2048"
   height="2048"
   id="svg2"
   version="1.1"
   inkscape:version="0.48.4 r9939"
   sodipodi:docname="slightly-better-track.svg"
   inkscape:export-filename="/home/cromo/projects/ludum-dare-34/art/slightly-better-track.png"
   inkscape:export-xdpi="90"
   inkscape:export-ydpi="90">
  <defs
     id="defs4" />
  <sodipodi:namedview
     id="base"
     pagecolor="#ffffff"
     bordercolor="#666666"
     borderopacity="1.0"
     inkscape:pageopacity="0.0"
     inkscape:pageshadow="2"
     inkscape:zoom="0.39697266"
     inkscape:cx="1315.6908"
     inkscape:cy="1089.2316"
     inkscape:document-units="px"
     inkscape:current-layer="layer2"
     showgrid="false"
     fit-margin-top="0"
     fit-margin-left="0"
     fit-margin-right="0"
     fit-margin-bottom="0"
     inkscape:window-width="1920"
     inkscape:window-height="1056"
     inkscape:window-x="1920"
     inkscape:window-y="0"
     inkscape:window-maximized="1"
     inkscape:snap-grids="false">
    <inkscape:grid
       type="xygrid"
       id="grid4735"
       empspacing="4"
       visible="true"
       enabled="true"
       snapvisiblegridlinesonly="true"
       spacingx="4px"
       spacingy="4px" />
  </sodipodi:namedview>
  <metadata
     id="metadata7">
    <rdf:RDF>
      <cc:Work
         rdf:about="">
        <dc:format>image/svg+xml</dc:format>
        <dc:type
           rdf:resource="http://purl.org/dc/dcmitype/StillImage" />
        <dc:title></dc:title>
      </cc:Work>
    </rdf:RDF>
  </metadata>
  <g
     inkscape:label="reference"
     inkscape:groupmode="layer"
     id="layer1"
     transform="translate(122.96674,1707.4516)"
     sodipodi:insensitive="true">
    <g
       id="g3798"
       transform="matrix(3.3277346,0,0,3.3277346,-172.32936,-531.22851)">
      <image
         y="-353.4606"
         x="14.833691"
         id="image3190"
         xlink:href="file:///home/cromo/projects/ludum-dare-34/art/really-bad-track.png"
         height="615.43372"
         width="615.43372" />
    </g>
  </g>
  <g
     inkscape:groupmode="layer"
     id="layer2"
     inkscape:label="track"
     style="opacity:1">
    <rect
       style="fill:#2a7e10;stroke:#000000;fill-opacity:1;stroke-opacity:1"
       id="rect4067"
       width="2148.7627"
       height="2080.7478"
       x="-40.305042"
       y="-22.671587" />
    <path
       style="fill:#9b6d1f;stroke:none;stroke-width:1px;stroke-linecap:butt;stroke-linejoin:miter;stroke-opacity:1;fill-opacity:1"
       d="m 889.2219,139.80297 c -90.30408,4.30539 -214.23348,23.94659 -294.7219,31.47828 -57.41783,5.37287 -118.6551,15.31121 -166.25,47.875 -36.59697,25.03915 -70.52341,67.35033 -92.59056,105.8125 -23.04708,40.17016 -33.26863,82.79655 -40.94069,128.46875 -16.70092,99.42155 7.62087,260.0869 -1.33594,346.28906 -5.07374,48.83083 -19.80258,97.65214 -34.53124,144.48438 -19.85515,63.13276 -19.18495,110.45646 -23.53907,167.44536 -5.18267,67.8334 3.74732,136.4507 4.58593,204.4766 0.17591,14.2697 -3.68241,29.8887 -3.11718,44.1483 5.34374,134.8125 -4.174,227.7426 11.57811,316.2656 8.71526,48.9777 19.74885,72.9982 42.59986,117.0348 9.16242,17.6571 10.45921,23.3615 26.10491,38.8074 2.65116,2.6173 15.92229,9.1975 23.3102,14.6001 6.60403,4.8293 5.16589,9.4293 7.36818,11.4005 13.38024,11.976 20.1732,18.1856 37.04616,25.2306 46.62023,19.4657 123.82141,40.9583 184.53071,52.8994 60.61452,11.9224 100.72444,8.587 151.15576,9.6302 43.92503,0.9087 90.14248,3.3584 156.16362,6.1314 188.55554,7.9196 243.23234,33.6922 429.50954,11.3152 85.0512,-10.217 184.869,-12.8834 253.1398,-30.8416 81.079,-21.3273 96.418,-42.0736 141.7076,-82.5107 69.0233,-61.6277 76.1542,-42.777 99.5171,-98.8522 8.7455,-20.9908 8.077,-52.7647 3.1243,-74.9586 -13.0444,-58.4551 -47.4157,-153.9226 -60.4322,-176.3438 -28.842,-49.6812 -62.4374,-81.0046 -93.8468,-129.1038 -31.8397,-48.758 -62.2214,-114.8102 -81.8655,-151.7669 -12.9071,-24.2823 -26.3049,-60.168 -25.1822,-69.8878 2.379,-20.5948 82.302,-88.9123 117.1346,-130.9894 46.6342,-56.33321 85.4885,-109.56629 124.6969,-171.2987 22.6453,-35.65437 105.8757,-215.66842 106.4042,-256.95657 0.9049,-70.69351 -16.7773,-140.10759 -52.8994,-200.88242 -28.8212,-48.49102 -76.3792,-86.30831 -116.4979,-125.96344 -45,-44.48007 -91.3801,-64.92983 -172.5614,-91.31039 -73.0209,-23.72876 -207.7842,-21.20007 -219.1424,-21.42797 -15.142,-0.30381 -34.323,6.10223 -47.882,5.67851 -20.1525,-0.62977 -70.5112,-7.23612 -110.188,-10.08687 -102.1982,-7.34286 -179.80771,-11.17026 -282.1531,-6.29078 z m -64.82342,151.22827 c 45.31778,-2.34214 16.31816,-8.17769 68.85371,-9.51736 85.54196,-2.18133 234.41181,4.79167 308.01341,11.2908 27.0852,2.39167 75.2772,8.06678 102.4141,6.35939 28.1818,-1.77313 89.2259,-4.9764 139.5781,-1.15626 50.4458,3.82723 116.1614,22.8089 146.1328,41.78125 45.6527,28.89888 77.8549,76.38987 114.9844,108.00001 30.2917,25.78882 41.9387,100.96359 42.9453,125.96094 0.5121,12.71797 -46.5888,122.22404 -76.8907,182.39844 -34.09,67.69711 -89.6824,132.30048 -138.6952,190.11718 -24.6203,29.04264 -83.4665,95.32447 -87.586,94.11717 -4.5611,-1.3368 -1.4627,-11.5093 -14.4922,-34.5234 -5.3765,-9.49665 2.591,-67.17283 -30.2656,-128.1719 -26.1848,-48.6128 -67.4652,-86.9882 -112.1406,-119.4375 -33.7319,-24.50064 -72.5343,-41.49046 -110.8438,-57.9375 -64.4169,-27.65546 -142.3538,-58.11219 -212.35931,-61.79688 -49.02584,-2.58044 -86.713,7.62226 -133.35157,22.95313 -33.93767,11.15588 -69.40243,29.15946 -91.57032,51.27343 -27.14082,27.07479 -89.09981,121.18936 -104.75781,184.81248 -10.85274,44.09792 -0.69641,70.52974 8.00781,115.10154 11.90961,60.9857 31.18235,123.7058 54.64844,181.2422 14.75237,36.1713 31.44924,72.6271 58.39062,100.9141 44.04764,46.2476 100.53963,75.4639 167.44531,88.4609 53.63836,10.4197 106.55673,18.7139 161.07823,15.1015 51.9297,-3.4406 32.5589,-10.5638 148.7577,-33.0311 26.7814,-5.1782 75.368,-19.0568 122.5469,-51.8828 44.7132,-31.1105 46.8955,-44.4652 52.914,-43.8672 5.9451,0.5907 23.492,45.4451 47.2345,82.789 21.3763,33.6224 29.331,16.6921 37.3758,32.1156 17.1737,32.9258 56.1269,96.3757 98.6866,147.0954 13.8243,16.4748 24.8982,27.6041 31.4063,55.2734 4.6231,19.6553 42.3151,97.9606 38.9843,112.1797 -1.2057,5.1475 -80.0449,64.7265 -101.4921,82.2265 -12.7488,10.4025 -67.6291,23.9919 -163.8985,32.1329 -81.1135,6.8593 -156.0172,16.3165 -224.0703,15.5781 -71.4941,-0.7757 -123.6151,-9.062 -194.97655,-13.4844 -77.26544,-4.7883 -156.15851,-10.3502 -233.53125,-12.8672 -58.75017,-1.9112 -109.96486,2.9122 -176.78906,-12.914 -48.58856,-11.5075 -111.7719,-25.609 -139.72656,-46.3984 -5.7773,-4.2965 -31.47985,-45.3885 -42.22657,-108.4454 -6.64597,-38.9955 -3.10532,-209.0351 -5.0703,-250.3203 -1.45896,-30.6534 2.14473,-79.6479 0.89062,-131.6953 -1.25557,-52.1079 -7.28749,-105.1255 -3.07813,-157.0782 6.89903,-85.1492 16.81428,-110.5722 28.26563,-161.67182 6.41416,-28.62205 18.61987,-65.94508 25.05468,-94.56249 5.27495,-23.45918 6.83988,-38.48134 7.5547,-62.51563 2.84127,-95.53194 -11.24652,-262.19401 -4.57814,-291.01563 8.19983,-35.44078 9.47928,-59.31599 27.6797,-90.81252 13.39591,-23.18215 45.0372,-60.84501 60.92187,-64.89062 103.59261,-26.38361 186.691,-33.34115 301.62504,-39.28125 z m 137.74215,490.75783 c 34.24876,0.066 74.95457,20.0615 107.87497,29.5078 11.788,3.38249 100.7839,41.10579 110.2032,46.36719 8.8033,4.91731 80.1173,44.37387 96.4844,99.41407 8.8858,29.88182 7.513,65.77687 15.578,95.89067 9.1334,34.1034 40.6089,86.2557 40.0001,91.7109 -0.6884,6.168 -31.5483,29.3946 -43.4297,39.4297 -15.8454,13.383 -38.0227,24.358 -57.3594,31.8593 -27.3521,10.6107 -97.4998,23.2163 -118.9375,30.0782 -58.5079,18.7275 -125.52155,2.3073 -156.17972,-1.4765 -21.9851,-2.7134 -68.62844,-14.5652 -94.84373,-48.0079 -27.12319,-34.6009 -40.01901,-73.3638 -55.4297,-114.5391 -7.62618,-20.3761 -33.7422,-137.34353 -32.57812,-152.31247 1.23897,-15.93212 44.78525,-94.78565 69.05469,-115.60937 20.65488,-17.72234 75.92439,-32.39653 119.56251,-32.31249 z"
       id="path3289"
       inkscape:connector-curvature="0"
       sodipodi:nodetypes="sssssssssssssssssssssssssssssssssssssssssssssssssssssssssssssssssssssssssssssssssssssssssssssssssssssss" />
    <path
       style="fill:#9b6d1f;fill-opacity:1;stroke:none"
       d="m 285.34602,849.01321 143.98773,-1.38996 -23.21275,86.65139 -144.17536,0 z"
       id="path4065"
       inkscape:connector-curvature="0"
       sodipodi:nodetypes="ccccc" />
    <path
       style="fill:#8e641c;fill-opacity:1;stroke:none"
       d="M 419.8125 847.71875 L 396.25 847.9375 L 396 866.46875 L 419.59375 866.8125 L 419.8125 847.71875 z M 419.59375 866.8125 L 419.34375 884.90625 L 424.1875 866.875 L 419.59375 866.8125 z M 396 866.46875 L 372.40625 866.1875 L 372.09375 889.75 L 395.6875 890.09375 L 396 866.46875 z M 395.6875 890.09375 L 395.375 913.6875 L 411.59375 913.90625 L 417.90625 890.34375 L 395.6875 890.09375 z M 395.375 913.6875 L 371.78125 913.375 L 371.5 934.28125 L 395.09375 934.28125 L 395.375 913.6875 z M 371.78125 913.375 L 372.09375 889.75 L 348.46875 889.46875 L 348.1875 913.0625 L 371.78125 913.375 z M 348.1875 913.0625 L 324.5625 912.75 L 324.3125 934.28125 L 347.875 934.28125 L 348.1875 913.0625 z M 324.5625 912.75 L 324.90625 889.15625 L 301.28125 888.84375 L 301 912.4375 L 324.5625 912.75 z M 301 912.4375 L 277.375 912.125 L 277.09375 934.28125 L 300.6875 934.28125 L 301 912.4375 z M 277.375 912.125 L 277.71875 888.53125 L 274.5 888.5 L 268.0625 912 L 277.375 912.125 z M 277.71875 888.53125 L 301.28125 888.84375 L 301.59375 865.25 L 280.96875 864.96875 L 277.875 876.25 L 277.71875 888.53125 z M 301.59375 865.25 L 325.1875 865.5625 L 325.40625 848.625 L 301.8125 848.84375 L 301.59375 865.25 z M 325.1875 865.5625 L 324.90625 889.15625 L 348.46875 889.46875 L 348.78125 865.84375 L 325.1875 865.5625 z M 372.40625 866.1875 L 372.625 848.15625 L 349.03125 848.40625 L 348.8125 865.84375 L 372.40625 866.1875 z "
       id="path4855" />
  </g>
</svg>
